packages/icons/svg/Outline/umbrella.svg

<svg fill="none" height="24" viewBox="0 0 24 24" width="24" xmlns="http://www.w3.org/2000/svg"><path clip-rule="evenodd" d="m4.06253 11.0001c.493-3.94003 3.865-7.00003 7.93697-7.00003 4.073 0 7.445 3.06 7.938 7.00003zm7.93697-9.0001c-5.51299 0-9.99999 4.486-9.99999 10 0 .553.448 1 1.001 1h7.99899v6c0 1.654 1.346 3 3.001 3 1.654 0 3-1.346 3-3 0-.553-.448-1-1-1-.553 0-1 .447-1 1 0 .552-.449 1-1 1-.552 0-1-.448-1-1v-6h7.999c.553 0 1-.447 1-1 0-5.514-4.486-10-10-10z" fill="#6b7280" fill-rule="evenodd"/></svg>

<svg width="24" height="24" viewBox="0 0 24 24" fill="none" xmlns="http://www.w3.org/2000/svg">
<g id="Icon/Outline/umbrella">
<path id="Mask" fill-rule="evenodd" clip-rule="evenodd" d="M4.06251 11C4.55551 7.06 7.92751 4 11.9995 4C16.0725 4 19.4445 7.06 19.9375 11H4.06251ZM11.9995 2C6.48651 2 1.99951 6.486 1.99951 12C1.99951 12.553 2.44751 13 3.00051 13H10.9995V19C10.9995 20.654 12.3455 22 14.0005 22C15.6545 22 17.0005 20.654 17.0005 19C17.0005 18.447 16.5525 18 16.0005 18C15.4475 18 15.0005 18.447 15.0005 19C15.0005 19.552 14.5515 20 14.0005 20C13.4485 20 13.0005 19.552 13.0005 19V13H20.9995C21.5525 13 21.9995 12.553 21.9995 12C21.9995 6.486 17.5135 2 11.9995 2Z" fill="#000000"/>
</g>
</svg>
